app/dist/common/images/priority-technology.svg

<svg height="18" width="18" xmlns="http://www.w3.org/2000/svg"><path d="m0 9a9 9 0 1 1 18 0 9 9 0 0 1 -18 0z" fill="#f0f3fa"/><path d="m4.72 6.57 1.44.78 2.84-1.85 2.81 1.83 1.42-.8-4.23-2.53zm8.78.16-1.5.84v3.03l-2.83 1.84v1.5l4.33-2.59zm-4.64 7.24v-1.51l-1.36-.89v1.58zm.31-3.17 1.33-.8v-1.59l-1.33.75zm1.21-2.67-1.38-.83-1.4.84 1.4.76zm-2.88.29 1.36.74v1.66l-1.36-.82zm-1.5-.82-1.5-.82v6.22l1.5.9z"/></svg>

<!-- by TradingView --><svg xmlns="http://www.w3.org/2000/svg" width="18" height="18"><path d="M0 9a9 9 0 1118 0A9 9 0 010 9z" fill="#F0F3FA"/><path d="M4.72 6.57l1.44.78L9 5.5l2.81 1.83 1.42-.8L9 4 4.72 6.57zm8.78.16l-1.5.84v3.03l-2.83 1.84v1.5l4.33-2.59V6.73zm-4.64 7.24v-1.51l-1.36-.89v1.58l1.36.82zm.31-3.17l1.33-.8V8.41l-1.33.75v1.64zm1.21-2.67L9 7.3l-1.4.84L9 8.9l1.38-.77zm-2.88.29l1.36.74v1.66L7.5 10V8.42zM6 7.6l-1.5-.82V13l1.5.9V7.6z"/></svg>
